fs/document_briefcase_20_regular.svg

<svg viewBox="0 0 20 20" fill="none" xmlns="http://www.w3.org/2000/svg" height="1em" width="1em">
  <path d="M6 2C4.89543 2 4 2.89543 4 4V9.05001C4.16156 9.01722 4.32877 9 4.5 9H5V4C5 3.44772 5.44772 3 6 3H10V6.5C10 7.32843 10.6716 8 11.5 8H15V16C15 16.5523 14.5523 17 14 17H11V17.5C11 17.6712 10.9828 17.8384 10.95 18H14C15.1046 18 16 17.1046 16 16V7.41421C16 7.01639 15.842 6.63486 15.5607 6.35355L11.6464 2.43934C11.3651 2.15804 10.9836 2 10.5858 2H6ZM14.7929 7H11.5C11.2239 7 11 6.77614 11 6.5V3.20711L14.7929 7ZM3 11.5V12H2.5C1.67157 12 1 12.6716 1 13.5V17.5C1 18.3284 1.67157 19 2.5 19H8.5C9.32843 19 10 18.3284 10 17.5V13.5C10 12.6716 9.32843 12 8.5 12H8V11.5C8 10.6716 7.32843 10 6.5 10H4.5C3.67157 10 3 10.6716 3 11.5ZM4.5 11H6.5C6.77614 11 7 11.2239 7 11.5V12H4V11.5C4 11.2239 4.22386 11 4.5 11Z" fill="#212121"/>
</svg>

<svg viewBox="0 0 20 20" fill="none" xmlns="http://www.w3.org/2000/svg" height="1em" width="1em">
  <path d="M6 2a2 2 0 0 0-2 2v5.05c.162-.033.329-.05.5-.05H5V4a1 1 0 0 1 1-1h4v3.5A1.5 1.5 0 0 0 11.5 8H15v8a1 1 0 0 1-1 1h-3v.5c0 .171-.017.338-.05.5H14a2 2 0 0 0 2-2V7.414a1.5 1.5 0 0 0-.44-1.06l-3.914-3.915A1.5 1.5 0 0 0 10.586 2H6Zm8.793 5H11.5a.5.5 0 0 1-.5-.5V3.207L14.793 7ZM3 11.5v.5h-.5A1.5 1.5 0 0 0 1 13.5v4A1.5 1.5 0 0 0 2.5 19h6a1.5 1.5 0 0 0 1.5-1.5v-4A1.5 1.5 0 0 0 8.5 12H8v-.5A1.5 1.5 0 0 0 6.5 10h-2A1.5 1.5 0 0 0 3 11.5Zm1.5-.5h2a.5.5 0 0 1 .5.5v.5H4v-.5a.5.5 0 0 1 .5-.5Z" fill="#212121"/>
</svg>
